src/icons/blockchains/dark/terra-classic.svg

<svg width="24" height="24" viewBox="0 0 24 24" fill="none" xmlns="http://www.w3.org/2000/svg">
  <rect width="24" height="24" rx="12" fill="#080530" />
  <mask
    id="mask0_1131_18488"
    style="mask-type: alpha"
    maskUnits="userSpaceOnUse"
    x="4"
    y="4"
    width="16"
    height="16"
  >
    <rect x="4" y="4" width="16" height="16" fill="#D9D9D9" />
  </mask>
  <g mask="url(#mask0_1131_18488)">
    <path
      d="M9.65384 5.40844C11.0626 4.8815 12.6482 4.8803 14.0835 5.3134C15.9518 5.89326 17.529 7.30324 18.3531 9.07291C18.5804 9.57698 18.7982 10.1027 18.8199 10.6633C17.7696 10.0546 16.6183 9.66001 15.4646 9.30029C13.6191 8.63501 11.687 8.17304 9.94017 7.25872C9.53355 7.01571 9.01502 6.76668 8.90435 6.2602C8.85983 5.82228 9.32301 5.57807 9.65384 5.40844Z"
      fill="white"
    />
    <path
      d="M5.40123 9.66819C5.80906 8.56138 6.47795 7.53399 7.38625 6.77246C7.61724 8.67208 8.42569 10.5079 9.76106 11.889C11.3623 13.5528 13.6433 14.5742 15.964 14.5357C16.8855 14.5646 17.7866 14.3517 18.6853 14.1796C17.801 17.3749 14.299 19.4959 11.0543 18.9858C9.09578 18.7355 7.2876 17.5758 6.19644 15.9385C4.96573 14.1291 4.65534 11.7266 5.40123 9.66819Z"
      fill="white"
    />
    <path
      d="M15.4648 9.30078C16.6186 9.66049 17.7699 10.0551 18.8201 10.6639L18.8911 10.7012C18.9886 11.4338 19.0595 12.1809 18.9296 12.9147C18.4015 12.691 17.9732 12.2976 17.5257 11.9499C16.6643 11.2329 15.7848 10.4124 15.4648 9.30078Z"
      fill="#C5C5C5"
    />
  </g>
</svg>

<svg
  xmlns="http://www.w3.org/2000/svg"
  width="24"
  height="24"
  fill="none"
  xmlns:v="https://vecta.io/nano"
>
  <rect width="24" height="24" rx="12" fill="#080530" />
  <mask id="A" maskUnits="userSpaceOnUse" x="4" y="4" width="16" height="16" mask-type="alpha">
    <path fill="#d9d9d9" d="M4 4h16v16H4z" />
  </mask>
  <g mask="url(#A)">
    <path
      d="M9.654 5.408c1.409-.527 2.994-.528 4.43-.095 1.868.58 3.445 1.99 4.27 3.76.227.504.445 1.03.467 1.59-1.05-.609-2.202-1.003-3.355-1.363-1.846-.665-3.778-1.127-5.524-2.042-.407-.243-.925-.492-1.036-.999-.045-.438.419-.682.749-.852zm-4.253 4.26c.408-1.107 1.077-2.134 1.985-2.896.231 1.9 1.039 3.735 2.375 5.117 1.601 1.664 3.882 2.685 6.203 2.647.922.029 1.823-.184 2.721-.356-.884 3.195-4.386 5.316-7.631 4.806-1.959-.25-3.767-1.41-4.858-3.047a7.06 7.06 0 0 1-.795-6.27z"
      fill="#fff"
    />
    <path
      d="M15.465 9.301c1.154.36 2.305.754 3.355 1.363l.071.037c.098.733.168 1.48.038 2.214-.528-.224-.956-.617-1.404-.965-.861-.717-1.741-1.537-2.061-2.649z"
      fill="#c5c5c5"
    />
  </g>
</svg>
